contributed-vectors/apk_extractor.svg

<?xml version="1.0" encoding="UTF-8" standalone="no"?>
<svg
   xmlns:dc="http://purl.org/dc/elements/1.1/"
   xmlns:cc="http://creativecommons.org/ns#"
   xmlns:rdf="http://www.w3.org/1999/02/22-rdf-syntax-ns#"
   xmlns:svg="http://www.w3.org/2000/svg"
   xmlns="http://www.w3.org/2000/svg"
   xmlns:sodipodi="http://sodipodi.sourceforge.net/DTD/sodipodi-0.dtd"
   xmlns:inkscape="http://www.inkscape.org/namespaces/inkscape"
   width="192"
   height="192"
   viewBox="0 0 192 192"
   id="svg2"
   version="1.1"
   inkscape:version="0.92.5 (2060ec1f9f, 2020-04-08)"
   sodipodi:docname="apk_extractor.svg"
   inkscape:export-filename="/home/creepertron/Icon References/Delta/png/apk_extractor.png"
   inkscape:export-xdpi="96"
   inkscape:export-ydpi="96">
  <sodipodi:namedview
     id="base"
     pagecolor="#ffffff"
     bordercolor="#666666"
     borderopacity="1.0"
     inkscape:pageopacity="0.0"
     inkscape:pageshadow="2"
     inkscape:zoom="4.0000001"
     inkscape:cx="38.244532"
     inkscape:cy="122.35946"
     inkscape:document-units="px"
     inkscape:current-layer="layer1"
     showgrid="false"
     units="px"
     inkscape:window-width="1280"
     inkscape:window-height="745"
     inkscape:window-x="-12"
     inkscape:window-y="-2"
     inkscape:window-maximized="1"
     inkscape:document-rotation="0"
     inkscape:snap-global="true"
     inkscape:object-paths="true"
     inkscape:snap-intersection-paths="true"
     inkscape:snap-smooth-nodes="true"
     inkscape:snap-midpoints="true" />
  <defs
     id="defs4">
    <inkscape:path-effect
       effect="fillet_chamfer"
       id="path-effect1076"
       is_visible="true"
       lpeversion="1"
       satellites_param="F,0,1,1,0,0,0,1 @ F,0,1,1,0,0,0,1 @ F,0,0,1,0,0,0,1 @ F,0,0,1,0,0,0,1 @ F,0,0,1,0,0,0,1 @ F,0,1,1,0,0,0,1 @ F,0,1,1,0,0,0,1 @ F,0,0,1,0,0,0,1 @ F,0,0,1,0,0,0,1 @ F,0,0,1,0,0,0,1 @ F,0,0,1,0,0,0,1 @ F,0,0,1,0,0,0,1 @ F,0,0,1,0,0,0,1"
       unit="px"
       method="auto"
       mode="F"
       radius="0"
       chamfer_steps="1"
       flexible="false"
       use_knot_distance="true"
       apply_no_radius="true"
       apply_with_radius="true"
       only_selected="true"
       hide_knots="false" />
    <rect
       x="69.860562"
       y="934.29481"
       width="95.05863"
       height="100.44932"
       id="rect904" />
  </defs>
  <metadata
     id="metadata7">
    <rdf:RDF>
      <cc:Work
         rdf:about="">
        <dc:format>image/svg+xml</dc:format>
        <dc:type
           rdf:resource="http://purl.org/dc/dcmitype/StillImage" />
        <dc:title />
      </cc:Work>
    </rdf:RDF>
  </metadata>
  <g
     inkscape:label="Calque 1"
     inkscape:groupmode="layer"
     id="layer1"
     transform="translate(0,-860.36216)">
    <circle
       style="fill:#99dc9b;fill-opacity:1;stroke:none;stroke-width:0.25067;stop-color:#000000"
       id="path925"
       cx="96"
       cy="956.36218"
       r="88" />
    <path
       style="fill:#fefefe;fill-opacity:1;stroke:none;stroke-width:1.72511995;stroke-linecap:round;stroke-linejoin:round;stroke-miterlimit:4;stroke-dasharray:none;stroke-opacity:1"
       d="M 82.576172 59.5 C 82.155022 59.504 81.729115 59.670184 81.396484 59.996094 C 80.73123 60.647914 80.698661 61.685759 81.324219 62.324219 L 85.037109 66.113281 C 83.872217 66.953116 82.819315 67.92608 81.894531 69.003906 C 81.893982 69.001934 81.893127 69.000019 81.892578 68.998047 C 79.307111 72.012328 77.75 75.876342 77.75 80.103516 L 77.75 80.759766 L 84.712891 80.759766 L 114.25 80.759766 L 114.25 80.103516 C 114.25 74.363916 111.38555 69.302091 106.96289 66.113281 L 110.67383 62.324219 C 111.2994 61.685759 111.26876 60.647924 110.60352 59.996094 C 109.93826 59.344274 108.89901 59.334168 108.27344 59.972656 L 103.97266 64.361328 C 101.56363 63.24109 98.866422 62.595703 96 62.595703 C 93.133578 62.595703 90.436364 63.241088 88.027344 64.361328 L 83.726562 59.972656 C 83.413781 59.653426 82.997322 59.49564 82.576172 59.5 z M 70.117188 83.605469 C 67.545841 83.605469 65.474609 85.592777 65.474609 88.060547 L 65.474609 109.9375 C 65.474609 112.40527 67.545843 114.39063 70.117188 114.39062 C 72.688532 114.39062 74.757812 112.40527 74.757812 109.9375 L 74.757812 88.060547 C 74.757812 85.592777 72.688531 83.605469 70.117188 83.605469 z M 121.88281 83.605469 C 119.31146 83.605469 117.24219 85.592777 117.24219 88.060547 L 117.24219 109.9375 C 117.24219 110.06862 117.26975 110.19214 117.28125 110.32031 C 117.48575 112.60413 119.44838 114.39064 121.88281 114.39062 C 124.45415 114.39062 126.52539 112.40527 126.52539 109.9375 L 126.52539 107.58594 L 126.52539 88.060547 C 126.52539 85.592777 124.45415 83.605469 121.88281 83.605469 z M 77.75 83.804688 L 77.75 114.4375 C 77.75 115.94905 79.080444 117.16602 80.732422 117.16602 L 83.708984 117.16602 L 83.708984 128.04492 C 83.708984 130.33439 85.476828 132.20927 87.808594 132.4707 C 87.809194 132.4629 87.809948 132.45506 87.810547 132.44727 C 87.990165 132.46769 88.166049 132.5 88.351562 132.5 C 90.92291 132.5 92.992188 130.5127 92.992188 128.04492 L 92.992188 117.5 L 92.992188 117.16602 L 94.125 117.16602 L 99.007812 117.16602 L 99.007812 128.04492 C 99.007813 130.5127 101.07709 132.5 103.64844 132.5 C 106.21978 132.5 108.29102 130.5127 108.29102 128.04492 L 108.29102 117.16602 L 111.26758 117.16602 C 112.91956 117.16602 114.25 115.94905 114.25 114.4375 L 114.25 111.21484 L 114.25 83.804688 L 85.300781 83.804688 L 77.75 83.804688 z "
       transform="translate(0,860.36216)"
       id="rect4182" />
    <circle
       style="fill:#99dc9b;fill-opacity:1;stroke:none;stroke-width:0.0794772;stop-color:#000000"
       id="path892"
       cx="88.428635"
       cy="933.37946"
       r="1.4574726" />
    <circle
       style="fill:#99dc9b;fill-opacity:1;stroke:none;stroke-width:0.0794772;stop-color:#000000"
       id="circle894"
       cx="103.57106"
       cy="933.37946"
       r="1.4574726" />
  </g>
</svg>

<svg xmlns="http://www.w3.org/2000/svg" width="192" height="192"><g transform="translate(0 -860.362)"><circle cx="96" cy="956.362" r="88" style="fill:#99dc9b;fill-opacity:1;stroke:none;stroke-width:.25067;stop-color:#000"/><path d="M82.576 59.5a1.71 1.71 0 0 0-1.18.496c-.665.652-.697 1.69-.072 2.328l3.713 3.79a18.058 18.058 0 0 0-3.142 2.89l-.002-.006c-2.586 3.014-4.143 6.878-4.143 11.106v.656h36.5v-.656c0-5.74-2.864-10.802-7.287-13.99l3.71-3.79c.626-.638.596-1.676-.07-2.328-.665-.652-1.704-.662-2.33-.023l-4.3 4.388A18.854 18.854 0 0 0 96 62.596c-2.866 0-5.564.645-7.973 1.765l-4.3-4.388a1.578 1.578 0 0 0-1.15-.473zM70.117 83.605c-2.571 0-4.642 1.988-4.642 4.456v21.876c0 2.468 2.07 4.454 4.642 4.454 2.572 0 4.64-1.986 4.64-4.454V88.061c0-2.468-2.068-4.456-4.64-4.456zm51.766 0c-2.572 0-4.64 1.988-4.64 4.456v21.876c0 .132.027.255.038.383.205 2.284 2.167 4.07 4.602 4.07 2.571 0 4.642-1.985 4.642-4.453V88.061c0-2.468-2.07-4.456-4.642-4.456zm-44.133.2v30.632c0 1.512 1.33 2.729 2.982 2.729h2.977v10.879c0 2.29 1.768 4.164 4.1 4.426 0-.008 0-.016.002-.024.18.02.355.053.54.053 2.572 0 4.641-1.987 4.641-4.455v-10.879h6.016v10.879c0 2.468 2.07 4.455 4.64 4.455 2.572 0 4.643-1.987 4.643-4.455v-10.879h2.977c1.652 0 2.982-1.217 2.982-2.728V83.805h-36.5z" style="fill:#fefefe;fill-opacity:1;stroke:none;stroke-width:1.72511995;stroke-linecap:round;stroke-linejoin:round;stroke-miterlimit:4;stroke-dasharray:none;stroke-opacity:1" transform="translate(0 860.362)"/><circle cx="88.429" cy="933.379" r="1.457" style="fill:#99dc9b;fill-opacity:1;stroke:none;stroke-width:.0794772;stop-color:#000"/><circle cx="103.571" cy="933.379" r="1.457" style="fill:#99dc9b;fill-opacity:1;stroke:none;stroke-width:.0794772;stop-color:#000"/></g></svg>
